X: 7438
T: Cloudy Day
R: reel
M: 4/4
K: Edorian
FGA|BEEE BEGA|BEEE DFAG|BEEE GDAF|dABA FAGA|
BEEE BEGB|eeed DFAG|BEeE BGAF|DFAG EEEA|
BEGB beEe|BeBG DFAG|BEED GDAF|dddA FAgf|
eEEB BeeB|BEEE DFAG|BEdb bbgf|dAGF EFGB||
efgg bggg|dfde fgfe|bebg aaaf|agba bagf|
eggg ebbb|dfef afdf|geBG AdAG|FAGF E2 EB|
EFGG BGGG|Adfg agfa|bBEG AAdf|agba fagf|
eggg bbag|ffde fagf|geBG Adag|faeB E4||

